src/main/resources/img/expui/filter/DatasetFilterNew.svg

<svg width="16" height="16" version="1.1" viewBox="0 0 16 16"  xmlns="http://www.w3.org/2000/svg"><path d="m12.5 9.5377v5.9623m-3-3h6" fill="#6c707e" stroke="#3574f0" stroke-linecap="round" stroke-linejoin="round" stroke-miterlimit="3.3"/><path d="m2.5 2a0.50005 0.50005 0 0 0-0.39062 0.8125l3.8906 4.8633v6.3242a0.50005 0.50005 0 0 0 0.77734 0.41602l0.22266-0.14844v-6.7676a0.50005 0.50005 0 0 0-0.10938-0.3125l-3.3496-4.1875h8.918l-3.3496 4.1875a0.50005 0.50005 0 0 0-0.10938 0.3125v2.5h1v-2.3242l3.8906-4.8633a0.50005 0.50005 0 0 0-0.39062-0.8125h-11z" color="#000000" fill="#6c707e" stroke-linejoin="round"/></svg>

<svg width="16" height="16" xmlns="http://www.w3.org/2000/svg"><path d="M12.5 9.538V15.5m-3-3h6" fill="#6c707e" stroke="#3574f0" stroke-linecap="round" stroke-linejoin="round" stroke-miterlimit="3.3"/><path d="M2.5 2a.5.5 0 0 0-.39.813L6 7.676V14a.5.5 0 0 0 .777.416L7 14.268V7.5a.5.5 0 0 0-.11-.313L3.542 3h8.918l-3.35 4.187A.5.5 0 0 0 9 7.5V10h1V7.676l3.89-4.864A.5.5 0 0 0 13.5 2h-11z" color="#000" fill="#6c707e"/></svg>
